X: 507
T: Canda Hâsıyyet mi Var
C: Hacı Ârif Bey
O: Turkey
F: http://compmusic.upf.edu/node/140
N: isfahan--sarki--sofyan--canda_hasiyyet--haci_arif_bey
N: makam= isfahan
N: form= sarki
N: usul= sofyan = 4/4
M: 4/4
L: 1/16
K: C _2/4B   
Q: 1/4=216
%%MIDI tuningsystem comma53
d2d4 d2d4 d2^c2d2 c2d2e2  | d2e4 e4g2 ^3/4f4e2 d4z2  | \
w:  ARANAĞME  |   | 
^3/4f2e2d2 e2d2^c2 =c2=B2A2 g2f2e2  | 
w:   | 
d2^c2d2 e4d2 d8-d2z2  | d2d4 d2d4 d2^c2d2 c2d2e2  | \
w:   |  ARANAĞME  | 
d2e4 e4g2 ^3/4f4e2 d4z2  | 
w:   | 
^3/4f2e2d2 e2d2^c2 =c2=B2A2 g2f2e2  | \
w:   | 
d2^c2d2 e4d2 d6 .A2.=B2.c2  | 
w:   | 
d4z2 =B4^c2 d12  | g2^3/4f2g2 =f2e2f2 e2d2e2 d2^c2d2  | \
w:  *  Can da  hâ  |  sıy  | 
^c2=B2A2 B2c2B2 c2d2c2 d4e2  | 
w:  *  *  *  yet  *  *  *  *  *  *  mi   | 
f2e2d2 ^c2d2e2 d8-d2z2  | c4d2 d4c2 d4c2 d4e2  | \
w:  var   |  sev *  *  *  dâ *  *  yı   | 
g2f2e2 d2c2B2 c4d2 B6  | 
w:  câ *  *  *  *  *  nân_  | 
B2c2B2 ^c2d2c2 d2e2d2 g2f2e2  | d4^c2 =B4c2 d8-d2z2  | \
w:  ol  |  *  *  *  ma sa    | 
g3^3/4fe2 f2g2a2 a4g2 f3ed2  | 
w:  SAZ  | 
^3/4f3ed2 e2f2g2 f4e2 d4g2  | ^3/4f2e2d2 ^c2=B2A2 g2f2e2 f2e2d2  | 
w:   |   | 
d2^c2d2 e4d2 d6 .A2.=B2.c2  | d4z2 d2c2d2 e12  | \
w:   |  *  Dil *  de  cem  | 
g2^3/4f2g2 =f2e2f2 e2d2e2 d2c2d2  | 
w:  iy  | 
c6 .d4e2 g2f2e2 d2c2B2  | c4d2 d4c2 c4B2 B6  | \
w:  *  yet  bu lun  |  maz  | 
B6 G4A2 A8-A2g2  | 
w:  *  dı  pe rî  | 
g4f2 f4e2 e4d2 d2c2B2  | c4d2 d4c2 c4B2 B4A2  | \
w:  şân_  |  ol *  *  *  *  *  *  ma  | 
B2A2B2 c2B2A2 A8-A2z2  | 
w:  sa    | 
a2g2^3/4f2 e2f2g2 a2g2^2/4f2 e4d2  | \
w:  SAZ  | 
e2f2g2 e4d2 c4B2 A4z2  | A4G2 e4d2 d4c2 c4B2  | 
w:   |   | 
B2A2B2 c4B2 A6 A2=B2^c2  | d4z2 =B4c2 d12  | \
w:   |  *  Aşk  *  lez  | 
e2d2^c2 d2c2_7/8B2 c2B2A2 {B}A6  | 
w:  zet  | 
_7/8B6 A4B2 d2^c2B2 c2B2A2  | A12 _7/8B2B2A2 B6  | \
w:  *  tir  e ğer   |  â  | 
_7/8B6 G4d2 d6 .e6  | e2^3/4f2g2 e2f2g2 ^2/4f4e2 d4a2  | 
w:  *  teş  zen_ i   |  cân_  | 
a2g2a2 g2^3/4f2g2 =f2e2f2 e2d2e2  | \
w:  ol  | 
d4^c2 =B4c2 d8-d2z2  | g3^3/4fe2 f2g2a2 a4g2 f3ed2  | 
w:  *  *  *  ma sa    |  SAZ  | 
^3/4f3ed2 e2f2g2 f4e2 d4g2  | ^3/4f2e2d2 ^c2=B2A2 g2f2e2 f2e2d2  | 
w:   |   | 
d2^c2d2 e4d2 d6 .A2.=B2.c2  | d4z2 d2c2d2 e12  | \
w:   |  *  Dil *  de  cem  | 
g2^3/4f2g2 =f2e2f2 e2d2e2 d2c2d2  | 
w:  iy  | 
c6 .d4e2 g2f2e2 d2c2B2  | c4d2 d4c2 c4B2 B6  | \
w:  *  yet  bu lun  |  maz  | 
B6 G4A2 A8-A2g2  | 
w:  *  dı  pe rî  | 
g4f2 f4e2 e4d2 d2c2B2  | c4d2 d4c2 c4B2 B4A2  | \
w:  şân_  |  ol *  *  *  *  *  *  ma  | 
B2A2B2 c2B2A2 A8-A2z2  | 
w:  sa    | 
|


